dist/img/home/intro_card_2.svg

<svg width="75" height="74" viewBox="0 0 75 74" fill="none" xmlns="http://www.w3.org/2000/svg">
<path d="M16.9633 24.6614C16.3751 25.65 15.8557 26.6761 15.4177 27.7398C14.9796 28.8035 14.6104 29.8922 14.3226 31.0059H14.2976L5.59961 32.251V41.6614L14.2976 42.9128C14.5792 44.0265 14.9421 45.1215 15.3801 46.1852C15.8181 47.2488 16.3313 48.275 16.9195 49.2698L16.9007 49.2823L11.6381 56.3151L18.2899 62.9662L25.3233 57.7041C26.312 58.2923 27.3382 58.8053 28.402 59.2496C29.4658 59.6938 30.5546 60.0567 31.6684 60.3445V60.3696L32.9137 69.0667H42.325L43.5765 60.3696C44.6903 60.0818 45.7854 59.7189 46.8492 59.2809C47.913 58.8429 48.9392 58.3298 49.9341 57.7417L49.9467 57.7604L56.9801 63.0225L63.6319 56.3714L58.3693 49.3386C58.9575 48.3501 59.4769 47.3177 59.9149 46.2602C60.3529 45.2028 60.7221 44.1079 61.01 42.9941H61.035L69.7329 41.749V32.3386L61.035 31.0872C60.7534 29.9735 60.3905 28.8785 59.9524 27.8149C59.5144 26.7512 59.0013 25.7251 58.4131 24.7302L58.4319 24.7177L63.6944 17.6849L57.0427 11.0338L50.0092 16.2959C49.0205 15.7077 47.9943 15.1947 46.9305 14.7504C45.8668 14.3062 44.7779 13.9433 43.6641 13.6555V13.6305L42.4189 4.93335H33.0075L32.4506 8.78761M31.7498 13.6367C30.6359 13.9183 29.5409 14.2812 28.4771 14.7192C27.4133 15.1571 26.3871 15.6702 25.3921 16.2584L25.3796 16.2396L18.3462 10.9775L11.6944 17.6286L13.9346 20.657" stroke="#6C757D" stroke-width="2" stroke-linecap="round" stroke-linejoin="round"/>
<path d="M42.8125 50.5667V50.3932C42.8125 48.5378 43.7586 46.836 45.2695 45.7348C48.1417 43.6392 49.9997 40.2889 49.9997 36.5115C49.9997 31.733 47.0255 27.6352 42.7921 25.9V34.5427C42.7921 36.9987 40.7571 38.9942 38.2524 38.9942C35.7478 38.9942 33.7128 36.9987 33.7128 34.5427V25.9267C29.5134 27.6753 26.5664 31.753 26.5664 36.5115C26.5664 40.2756 28.4109 43.6125 31.2626 45.7081C32.7667 46.816 33.706 48.5111 33.706 50.3531V50.5667" stroke="#6B3D90" stroke-width="2" stroke-linecap="round" stroke-linejoin="round"/>
<path d="M27.7171 51.6756C23.1237 48.2211 20.3999 42.7106 20.3999 36.8624C20.3999 26.7894 28.4731 18.5 38.2832 18.5C48.0934 18.5 56.1666 26.7894 56.1666 36.8624C56.1666 42.7817 53.3793 48.3515 48.6878 51.8" stroke="#6C757D" stroke-width="2" stroke-linecap="round" stroke-linejoin="round"/>
</svg>

<svg width="75" height="74" viewBox="0 0 75 74" fill="none" xmlns="http://www.w3.org/2000/svg"><path d="M16.963 24.661a23.584 23.584 0 00-1.545 3.079 25.002 25.002 0 00-1.095 3.266h-.025L5.6 32.25v9.41l8.698 1.252a24.15 24.15 0 002.621 6.357l-.018.012-5.263 7.033 6.652 6.651 7.033-5.262a24.403 24.403 0 006.345 2.64v.026l1.246 8.697h9.411l1.252-8.697a25.078 25.078 0 003.272-1.09 24.032 24.032 0 003.085-1.538l.013.018 7.033 5.263 6.652-6.652-5.263-7.032a23.974 23.974 0 001.546-3.079 24.715 24.715 0 001.095-3.266h.025l8.698-1.245v-9.41l-8.698-1.252a24.13 24.13 0 00-2.622-6.357l.019-.012 5.262-7.033-6.651-6.651-7.034 5.262a24.403 24.403 0 00-6.345-2.64v-.026L42.42 4.934h-9.411l-.557 3.855m-.701 4.849a24.15 24.15 0 00-6.358 2.621l-.012-.018-7.034-5.262-6.652 6.65 2.24 3.029" stroke="#6C757D" stroke-width="2" stroke-linecap="round" stroke-linejoin="round"/><path d="M42.813 50.567v-.174c0-1.855.946-3.557 2.456-4.658C48.142 43.639 50 40.289 50 36.51c0-4.778-2.974-8.876-7.207-10.611v8.643c0 2.456-2.035 4.451-4.54 4.451-2.504 0-4.54-1.995-4.54-4.451v-8.616c-4.199 1.748-7.146 5.826-7.146 10.584 0 3.765 1.845 7.101 4.697 9.197 1.504 1.108 2.443 2.803 2.443 4.645v.214" stroke="#6B3D90" stroke-width="2" stroke-linecap="round" stroke-linejoin="round"/><path d="M27.717 51.676C23.124 48.22 20.4 42.71 20.4 36.862 20.4 26.79 28.473 18.5 38.283 18.5c9.81 0 17.884 8.29 17.884 18.362 0 5.92-2.788 11.49-7.48 14.938" stroke="#6C757D" stroke-width="2" stroke-linecap="round" stroke-linejoin="round"/></svg>
